X:110
T:The Ramalies
T:not ugly
Z:Jack Campin - http://www.campin.me.uk
S:Blaikie MS (NLS MS.1578) p33, Blaikie #104
M:3/4
L:1/8
V:1 midi program 1 74
V:2 midi program 1 46 bass middle = d transpose -24
Q:1/4=86
K:E Minor
[V:1] E>F|GG F2 AF|EE E3  F|GB d2  ec|AA B2
[V:2] z2 |e2 B2 b2|e2 e2 d2|g2 g2  c2|d2 g2
%
[V:1] zE |GB d2 ec|AA B2 EF|GG F>G AF|EE E2|]
[V:2] z2 |g2 B2 c2|d2 G2 z2|e2 b2  B2|e2 E2|]
W:Transcription (c) Jack Campin 2009, no mirroring or republication without permission

